X:5055
T:The Royal Oak
M:6/8
R:Jig
L:1/8
Q:180
C:Aidan Crossey
K:A
|:cBc dcd|e3 c3|dcd B2c|dcd B2G|
cBc dcd|e3 c3|def ecA|dBG A3:||
|:Ace efg|aga e2f/g/|aec fec|ded B2c/d/|
Ace efg|aga e2f/g/|aec fec|dBG A3:||
